public/assets/nfl-logos/chargers.svg

<?xml version="1.0" encoding="UTF-8"?>
<svg id="Layer" xmlns="http://www.w3.org/2000/svg" viewBox="0 0 420 397.3">
  <defs>
    <style>
      .cls-1 {
        fill: #ffc20e;
      }

      .cls-1, .cls-2, .cls-3 {
        fill-rule: evenodd;
        stroke-width: 0px;
      }

      .cls-2 {
        fill: #fff;
      }

      .cls-3 {
        fill: #0080c6;
      }
    </style>
  </defs>
  <path class="cls-2" d="m419.14,185.2c-23.29-31.36-63.93-69.67-112.36-91.18l9.89,22.79c-41.18-20.74-86.95-35.63-138.84-35.39l11.06,11.97C93.05,97.14,36.82,144.67,0,185.2c.86-54.88,40.18-104.44,91.99-134.69l-10.66-9.9C119.88,13.92,173.95,6.44,219.59,11.71l-6.49-11.71c151.19,11.23,215.22,124.07,206.04,185.2"/>
  <path class="cls-3" d="m177.13,88.75l-11.62-12.58c44.02-1.46,88.52,5.16,140.29,29.5l-9.54-21.98c38.98,15.1,82.16,43.29,118.37,87.01-3.19-66.2-70.04-151.98-191.64-164.24l6.76,12.2c-49.15-8.35-104.37.34-139.51,22.75l10.99,10.2C48.34,79.97,13.59,125.1,6.13,170.7c43.66-45.6,100.42-77.1,171-81.95"/>
  <path class="cls-1" d="m395.66,135.16c-20.6-55.46-82.58-103.28-152.15-114.73l8.17,14.56c-41.9-12.96-102.79-12.18-142.82,8.71l11.48,10.66c-36.69,15.72-75.4,49.39-90.72,80.32,25.13-22.67,79.8-48.9,124.64-54.48l-11.14-12.07c43.1-8.54,100.55-.09,141.5,16.54l-7.94-18.31c30.16,6.18,86.22,33.13,118.98,68.78"/>
</svg>

<?xml version="1.0" encoding="UTF-8" standalone="no"?>
<svg
   id="Layer"
   viewBox="0 0 419.99991 185.2"
   version="1.1"
   width="419.99991"
   height="185.2"
   xmlns="http://www.w3.org/2000/svg"
   xmlns:svg="http://www.w3.org/2000/svg">
  <defs
     id="defs1">
    <style
       id="style1">
      .cls-1 {
        fill: #ffc20e;
      }

      .cls-1, .cls-2, .cls-3 {
        fill-rule: evenodd;
        stroke-width: 0px;
      }

      .cls-2 {
        fill: #fff;
      }

      .cls-3 {
        fill: #0080c6;
      }
    </style>
  </defs>
  <path
     class="cls-2"
     d="M 419.14,185.2 C 395.85,153.84 355.21,115.53 306.78,94.02 l 9.89,22.79 C 275.49,96.07 229.72,81.18 177.83,81.42 l 11.06,11.97 C 93.05,97.14 36.82,144.67 0,185.2 0.86,130.32 40.18,80.76 91.99,50.51 L 81.33,40.61 C 119.88,13.92 173.95,6.44 219.59,11.71 L 213.1,0 c 151.19,11.23 215.22,124.07 206.04,185.2"
     id="path1" />
  <path
     class="cls-3"
     d="M 177.13,88.75 165.51,76.17 c 44.02,-1.46 88.52,5.16 140.29,29.5 l -9.54,-21.98 c 38.98,15.1 82.16,43.29 118.37,87.01 C 411.44,104.5 344.59,18.72 222.99,6.46 l 6.76,12.2 C 180.6,10.31 125.38,19 90.24,41.41 l 10.99,10.2 C 48.34,79.97 13.59,125.1 6.13,170.7 49.79,125.1 106.55,93.6 177.13,88.75"
     id="path2" />
  <path
     class="cls-1"
     d="M 395.66,135.16 C 375.06,79.7 313.08,31.88 243.51,20.43 l 8.17,14.56 C 209.78,22.03 148.89,22.81 108.86,43.7 l 11.48,10.66 C 83.65,70.08 44.94,103.75 29.62,134.68 54.75,112.01 109.42,85.78 154.26,80.2 L 143.12,68.13 c 43.1,-8.54 100.55,-0.09 141.5,16.54 l -7.94,-18.31 c 30.16,6.18 86.22,33.13 118.98,68.78"
     id="path3" />
</svg>
